X: 1
T: Craigieford
C: Dennis Morrison
R: polka
Z: 2019 John Chambers <jc:trillian.mit.edu>
S: printed copy from Robert McOwen
N: Tune for Sueno's Stone
M: C|
L: 1/8
K: D
A,2 |\
"D"D2A,D FAdc | B2A2 A4 | AA,DF AGFA | "Em"G2E2 E3D |\
"A"C2A,C ECEG | "B"c2B2 B4 | "E"DE^GA BdcB | "A"A2a2 A2 ||
A,2 |\
"D"D2A,D FAdc | B2A2 A4 | "D"ddde fedc | "G"B2g2 g4 |\
dddd "Gm"d2g2 | "D"fffe"E7"d2B2 | "A"A2ec AGFE | "D"D2d2 d2 |]
A2 |\
"D"dddd f2a2 | b2a2 "A7"a2A2 | "D"dddd "E7"c2B2 | "A"A2e2 e2A2 |\
"E7"^GGGG F2E2 | "A"cccc e2c2 | "B"^dBAF "E7"E=dB^G | "A"A2A,2 A4 ||
"D"D2DE FAdc | B2A2 "A7"A4 | "D"dDFA "D7"defb | "G"a2g2 g4 |\
gggg d2g2 | "D"aaaa "E7"d2B2 | "A"A2ec AGFE | "D"D2d2 d2 |]
